X: 334
T: Bin Cefâ Görsem...
C: Ahmed Irsoy
O: Turkey
F: http://compmusic.upf.edu/node/140
N: tahirbuselik--beste--berefsan--bin_cefa--ahmet_irsoy
N: makam= tahirbuselik
N: form= beste
N: usul= berefsan = 32/8
M: 32/8
L: 1/16
K: C _1/4B ^f  
Q: 1/4=144
%%MIDI tuningsystem comma53
g2 a6 c'2 b2 a4  | a4 g3 b b a2 g g f f e  | \
w:  Bin  *  ce *  fâ   |  *  gör *  sem   | 
d4 c'3 b b3 a g2 d'2  | 
w:  ey  sâ *  nem  *  sen  | 
d' c' c' b b a {c'}b a a6 z2  | g2 a6 g3 f a4  | \
w:  den    |  Ten  *  dir  *  ten   | 
a2 e2 e3 d (3edc d4 {e}d c  | 
w:  *  *  dir  *  ta   | 
c3 B c2 g2 g3 f f3 e  | e f e f a g f e d6 z2  | \
w:  na  *  te  ne  ta  *  dir   |  ney    | 
g2 a4 {b}a g g3 =f f e f g  | 
w:  Bin  *  *  *  *  ce *  fâ   | 
e2 d2 {e}d3 c {a}g2 =f2 e2 d2  | e3 d c2 =B2 c3 B A4  | \
w:  *  *  *  gör *  *  sem   |  ey  *  sâ *  nem   | 
=B2 {d}c B B A A ^G A6 z2  | 
w:  sen *  *  *  *  *  *  *  den    | 
g2 a6 c'2 b2 a4  | a4 g3 b b a2 g g f f e  | \
w:  Bin  *  ce *  fâ   |  *  gör *  sem   | 
d4 c'3 b b3 a g2 d'2  | 
w:  ey  sâ *  nem  *  sen  | 
d' c' c' b b a {c'}b a a6 z2  | g2 a6 g3 f a4  | \
w:  den    |  Ten  *  dir  *  ten   | 
a2 e2 e3 d (3edc d4 {e}d c  | 
w:  *  *  dir  *  ta   | 
c3 B c2 g2 g3 f f3 e  | e f e f a g f e d6 z2  | \
w:  na  *  te  ne  ta  *  dir   |  ney    | 
g2 a4 {b}a g g3 =f f e f g  | 
w:  Bin  *  *  *  *  ce *  fâ   | 
e2 d2 {e}d3 c {a}g2 =f2 e2 d2  | e3 d c2 =B2 c3 B A4  | \
w:  *  *  *  gör *  *  sem   |  ey  *  sâ *  nem   | 
=B2 {d}c B B A A ^G A6 z2  | 
w:  sen *  *  *  *  *  *  *  den    | 
^e2 f6 e3 g f4  | f4 g4 a g a b a2 g2  | \
w:  Ta *  li *  im   |  *  dir  se ni   | 
f4 g4 a4 b4  | a3 g f ^e d e f6 z2  | 
w:  ve fâ sız_ e  |  den    | 
^e2 f6 e3 g f4  | f4 g4 a g a b a2 g2  | \
w:  Ta *  li *  im   |  *  dir  se ni   | 
f4 g4 a4 b4  | a3 g f e d2 a6 z2  | 
w:  ve fâ sız_ e  |  den    | 
g2 a6 g3 f a4  | a2 e2 e3 d (3edc d4 {e}d c  | \
w:  Ten  *  dir  *  ten   |  *  *  dir  *  ta   | 
c3 B c2 g2 g3 f f3 e  | 
w:  na  *  te  ne  ta  *  dir   | 
e f e f a g f e d6 z2  | g2 a4 {b}a g g3 =f f e f g  | \
w:  ney    |  Bin  *  *  *  *  ce *  fâ   | 
e2 d2 {e}d3 c {a}g2 =f2 e2 d2  | 
w:  *  *  *  gör *  *  sem   | 
e3 d c2 =B2 c3 B A4  | =B2 {d}c B B A A ^G A6 z2  | \
w:  ey  *  sâ *  nem   |  sen *  *  *  *  *  *  *  den    | 
g2 a6 c'2 b2 a4  | 
w:  Ben  *  a *  nı   | 
a4 g3 b b a2 g g f f e  | d4 c'3 b b3 a g2 d'2  | \
w:  *  sa *  nam   |  u sâ *  nam  *  sen  | 
d' c' c' b b a {c'}b a a6 z2  | 
w:  den    | 
g2 a6 g3 f a4  | a2 e2 e3 d (3edc d4 {e}d c  | \
w:  Ten  *  dir  *  ten   |  *  *  dir  *  ta   | 
c3 B c2 g2 g3 f f3 e  | 
w:  na  *  te  ne  ta  *  dir   | 
e f e f a g f e d6 z2  | g2 a4 {b}a g g3 =f f e f g  | \
w:  ney    |  Bin  *  *  *  *  ce *  fâ   | 
e2 d2 {e}d3 c {a}g2 =f2 e2 d2  | 
w:  *  *  *  gör *  *  sem   | 
e3 d c2 =B2 c3 B A4  | =B2 {d}c B B A A ^G A6 z2  | |


